styles/2/Numix/32/places/red-folder-copy.svg

<?xml version="1.0" encoding="UTF-8" standalone="no"?>
<svg
   xmlns:dc="http://purl.org/dc/elements/1.1/"
   xmlns:cc="http://creativecommons.org/ns#"
   xmlns:rdf="http://www.w3.org/1999/02/22-rdf-syntax-ns#"
   xmlns:svg="http://www.w3.org/2000/svg"
   xmlns="http://www.w3.org/2000/svg"
   xmlns:sodipodi="http://sodipodi.sourceforge.net/DTD/sodipodi-0.dtd"
   xmlns:inkscape="http://www.inkscape.org/namespaces/inkscape"
   width="32"
   height="32"
   viewBox="0 0 32 32"
   id="svg2"
   version="1.1"
   inkscape:version="0.91 r"
   sodipodi:docname="red-folder-copy.svg">
  <metadata
     id="metadata22">
    <rdf:RDF>
      <cc:Work
         rdf:about="">
        <dc:format>image/svg+xml</dc:format>
        <dc:type
           rdf:resource="http://purl.org/dc/dcmitype/StillImage" />
      </cc:Work>
    </rdf:RDF>
  </metadata>
  <defs
     id="defs20" />
  <sodipodi:namedview
     pagecolor="#ffffff"
     bordercolor="#666666"
     borderopacity="1"
     objecttolerance="10"
     gridtolerance="10"
     guidetolerance="10"
     inkscape:pageopacity="0"
     inkscape:pageshadow="2"
     inkscape:window-width="1280"
     inkscape:window-height="969"
     id="namedview18"
     showgrid="false"
     inkscape:zoom="14.75"
     inkscape:cx="15.662812"
     inkscape:cy="18.990149"
     inkscape:window-x="0"
     inkscape:window-y="0"
     inkscape:window-maximized="1"
     inkscape:current-layer="svg2" />
  <path
     style="font-size:medium;font-style:normal;font-variant:normal;font-weight:normal;font-stretch:normal;text-indent:0;text-align:start;text-decoration:none;line-height:normal;letter-spacing:normal;word-spacing:normal;text-transform:none;direction:ltr;block-progression:tb;writing-mode:lr-tb;text-anchor:start;baseline-shift:baseline;opacity:1;color:#000000;fill:#ef5350;fill-opacity:1;fill-rule:nonzero;stroke:none;stroke-width:1;marker:none;visibility:visible;display:inline;overflow:visible;enable-background:accumulate;font-family:Sans;-inkscape-font-specification:Sans"
     d="m 4,3.9999997 c -0.4916,0 -1,1 -1,1 l 0,0 c -0.666666,0 -0.833333,0 -1.5,0 -0.979161,0 -1.5,0.494035 -1.5,1.5 L 0,18.5 C 0,19.531461 0.523069,20 1.5,20 l 16.84375,0 C 19.21572,20 20,19.376781 20,18.5 L 20,7.4999997 c 0,-0.941323 -0.425107,-1.5 -1.5,-1.5 l -2.5,0 0,-1 c 0,-0.526881 -0.5084,-1 -1,-1 z"
     id="path3004-7"
     inkscape:connector-curvature="0"
     sodipodi:nodetypes="ssccssssscccsss" />
  <path
     style="font-size:medium;font-style:normal;font-variant:normal;font-weight:normal;font-stretch:normal;text-indent:0;text-align:start;text-decoration:none;line-height:normal;letter-spacing:normal;word-spacing:normal;text-transform:none;direction:ltr;block-progression:tb;writing-mode:lr-tb;text-anchor:start;baseline-shift:baseline;opacity:1;color:#000000;fill:#000000;fill-opacity:0.32156863000000002;fill-rule:nonzero;stroke:none;stroke-width:1;marker:none;visibility:visible;display:inline;overflow:visible;enable-background:accumulate;font-family:Sans;-inkscape-font-specification:Sans"
     d="m 4,3.9999997 c -0.4916,0 -1,1 -1,1 l 0,0 c -0.686803,0 -0.883535,0 -1.5,0 -0.979161,0 -1.5,0.482986 -1.5,1.5 L 0,18.5 C 0,19.503839 0.500972,20 1.5,20 l 16.84375,0 C 19.21572,20 20,19.376781 20,18.5 L 20,7.5517767 c 0,-1.013983 -0.419084,-1.551777 -1.5,-1.551777 l -2.5,0 0,-1 c 0,-0.526881 -0.5084,-1 -1,-1 z m 7,2 0,1 8,0 L 19,19 1,19 1,5.9999997 z"
     id="path3784-1"
     inkscape:connector-curvature="0"
     sodipodi:nodetypes="ssccssssscccsssccccccc" />
  <path
     style="font-size:medium;font-style:normal;font-variant:normal;font-weight:normal;font-stretch:normal;text-indent:0;text-align:start;text-decoration:none;line-height:normal;letter-spacing:normal;word-spacing:normal;text-transform:none;direction:ltr;block-progression:tb;writing-mode:lr-tb;text-anchor:start;baseline-shift:baseline;opacity:1;color:#000000;fill:#000000;fill-opacity:0.10196079;fill-rule:nonzero;stroke:none;stroke-width:1;marker:none;visibility:visible;display:inline;overflow:visible;enable-background:accumulate;font-family:Sans;-inkscape-font-specification:Sans"
     d="M 4 4 C 3.7542 4 3.50105 4.25 3.3125 4.5 C 3.12395 4.75 3 5 3 5 L 1.5 5 C 0.520839 5 0 5.494035 0 6.5 L 0 18.5 C 0 18.62548 0.01560032 18.734113 0.03125 18.84375 C 0.047360819 18.96605 0.058938084 19.053943 0.09375 19.15625 C 0.12503797 19.25009 0.17183513 19.328162 0.21875 19.40625 C 0.26943182 19.492961 0.30591324 19.557775 0.375 19.625 C 0.50144181 19.748034 0.65733136 19.846208 0.84375 19.90625 C 1.0301686 19.966292 1.2557672 20 1.5 20 L 18.34375 20 C 18.561743 20 18.772603 19.947126 18.96875 19.875 C 19.557191 19.658621 20 19.157586 20 18.5 L 20 7.5625 C 20 7.5398756 20.00042 7.5221495 20 7.5 C 20 6.558677 19.574893 6 18.5 6 L 16 6 L 16 5 C 16 4.473119 15.4916 4 15 4 L 4 4 z "
     id="path3787" />
  <path
     style="font-size:medium;font-style:normal;font-variant:normal;font-weight:normal;font-stretch:normal;text-indent:0;text-align:start;text-decoration:none;line-height:normal;letter-spacing:normal;word-spacing:normal;text-transform:none;direction:ltr;block-progression:tb;writing-mode:lr-tb;text-anchor:start;baseline-shift:baseline;color:#000000;fill:#ef5350;fill-opacity:1;fill-rule:nonzero;stroke:none;stroke-width:1;marker:none;visibility:visible;display:inline;overflow:visible;enable-background:accumulate;font-family:Sans;-inkscape-font-specification:Sans"
     d="m 16,12 c -0.4916,0 -1,1 -1,1 l 0,0 c -0.666666,0 -0.833333,0 -1.5,0 -0.979161,0 -1.5,0.494035 -1.5,1.5 l 0,12 c 0,1.031461 0.523069,1.5 1.5,1.5 l 16.84375,0 C 31.21572,28 32,27.376781 32,26.5 l 0,-11 C 32,14.558677 31.574893,14 30.5,14 l -2.5,0 0,-1 c 0,-0.526881 -0.5084,-1 -1,-1 z"
     id="path3004"
     inkscape:connector-curvature="0"
     sodipodi:nodetypes="ssccssssscccsss" />
  <path
     style="font-size:medium;font-style:normal;font-variant:normal;font-weight:normal;font-stretch:normal;text-indent:0;text-align:start;text-decoration:none;line-height:normal;letter-spacing:normal;word-spacing:normal;text-transform:none;direction:ltr;block-progression:tb;writing-mode:lr-tb;text-anchor:start;baseline-shift:baseline;color:#000000;fill:#000000;fill-opacity:0.32156863;fill-rule:nonzero;stroke:none;stroke-width:1;marker:none;visibility:visible;display:inline;overflow:visible;enable-background:accumulate;font-family:Sans;-inkscape-font-specification:Sans"
     d="m 16,12 c -0.4916,0 -1,1 -1,1 l 0,0 c -0.686803,0 -0.883535,0 -1.5,0 -0.979161,0 -1.5,0.482986 -1.5,1.5 l 0,12 c 0,1.003839 0.500972,1.5 1.5,1.5 l 16.84375,0 C 31.21572,28 32,27.376781 32,26.5 L 32,15.551777 C 32,14.537794 31.580916,14 30.5,14 l -2.5,0 0,-1 c 0,-0.526881 -0.5084,-1 -1,-1 z m 7,2 0,1 8,0 0,12 -18,0 0,-13 z"
     id="path3784"
     inkscape:connector-curvature="0"
     sodipodi:nodetypes="ssccssssscccsssccccccc" />
</svg>

<svg xmlns="http://www.w3.org/2000/svg" viewBox="0 0 32 32">
 <path d="m 4 4 c -0.492 0 -1 1 -1 1 l 0 0 c -0.667 0 -0.833 0 -1.5 0 -0.979 0 -1.5 0.494 -1.5 1.5 l 0 12 c 0 1.031 0.523 1.5 1.5 1.5 l 16.844 0 c 0.872 0 1.656 -0.623 1.656 -1.5 l 0 -11 c 0 -0.941 -0.425 -1.5 -1.5 -1.5 l -2.5 0 0 -1 c 0 -0.527 -0.508 -1 -1 -1 z" style="visibility:visible;fill:#ef5350;opacity:1;fill-opacity:1;stroke:none;display:inline;color:#000;fill-rule:nonzero"/>
 <path d="m 4 4 c -0.492 0 -1 1 -1 1 l 0 0 c -0.687 0 -0.884 0 -1.5 0 -0.979 0 -1.5 0.483 -1.5 1.5 l 0 12 c 0 1 0.501 1.5 1.5 1.5 l 16.844 0 c 0.872 0 1.656 -0.623 1.656 -1.5 l 0 -10.948 c 0 -1.014 -0.419 -1.552 -1.5 -1.552 l -2.5 0 0 -1 c 0 -0.527 -0.508 -1 -1 -1 z m 7 2 0 1 8 0 l 0 12 -18 0 0 -13 z" style="visibility:visible;fill:#000;opacity:1;fill-opacity:0.322;stroke:none;display:inline;color:#000;fill-rule:nonzero"/>
 <path d="m 4 4 c -0.246 0 -0.499 0.25 -0.688 0.5 c -0.189 0.25 -0.313 0.5 -0.313 0.5 l -1.5 0 c -0.979 0 -1.5 0.494 -1.5 1.5 l 0 12 c 0 0.125 0.016 0.234 0.031 0.344 c 0.016 0.122 0.028 0.21 0.063 0.313 c 0.031 0.094 0.078 0.172 0.125 0.25 c 0.051 0.087 0.087 0.152 0.156 0.219 c 0.126 0.123 0.282 0.221 0.469 0.281 c 0.186 0.06 0.412 0.094 0.656 0.094 l 16.844 0 c 0.218 0 0.429 -0.053 0.625 -0.125 c 0.588 -0.216 1.031 -0.717 1.031 -1.375 l 0 -10.938 c 0 -0.023 0 -0.04 0 -0.063 c 0 -0.941 -0.425 -1.5 -1.5 -1.5 l -2.5 0 l 0 -1 c 0 -0.527 -0.508 -1 -1 -1 l -11 0 z" style="visibility:visible;fill:#000;opacity:1;fill-opacity:0.102;stroke:none;display:inline;color:#000;fill-rule:nonzero"/>
 <path d="m 16 12 c -0.492 0 -1 1 -1 1 l 0 0 c -0.667 0 -0.833 0 -1.5 0 -0.979 0 -1.5 0.494 -1.5 1.5 l 0 12 c 0 1.031 0.523 1.5 1.5 1.5 l 16.844 0 c 0.872 0 1.656 -0.623 1.656 -1.5 l 0 -11 c 0 -0.941 -0.425 -1.5 -1.5 -1.5 l -2.5 0 0 -1 c 0 -0.527 -0.508 -1 -1 -1 z" style="visibility:visible;fill:#ef5350;fill-opacity:1;stroke:none;display:inline;color:#000;fill-rule:nonzero"/>
 <path d="m 16 12 c -0.492 0 -1 1 -1 1 l 0 0 c -0.687 0 -0.884 0 -1.5 0 -0.979 0 -1.5 0.483 -1.5 1.5 l 0 12 c 0 1 0.501 1.5 1.5 1.5 l 16.844 0 c 0.872 0 1.656 -0.623 1.656 -1.5 l 0 -10.948 c 0 -1.014 -0.419 -1.552 -1.5 -1.552 l -2.5 0 0 -1 c 0 -0.527 -0.508 -1 -1 -1 z m 7 2 0 1 8 0 0 12 -18 0 0 -13 z" style="visibility:visible;fill:#000;fill-opacity:0.322;stroke:none;display:inline;color:#000;fill-rule:nonzero"/>
</svg>
